X:1
T:The Swan Swims Bonnie
M:4/4
L:1/8
K:D
 A2| d2 c2 B2 AF| A2 BA F4| d4 c2 BA| F2B-A B2| Bc| dd cB A2 DF| A2 BA F2 FE|\
 D3 E F3 F| E2 D2 D2||

